X: 34254
T: Regal Slip, The
R: slip jig
M: 9/8
K: Aminor
|:G|EAA AGA cBA|~G3 BAB GED|EAA AGA cde|ged edB A2:|
|:e|age age dBA|~G3 BAB deg|age age dBd|ged edB A2:|

